H3/img/plate.svg

<svg viewBox="0 0 53 53" xmlns="http://www.w3.org/2000/svg"><g fill="#1a9ed4"><path d="m26.5 53a26.5 26.5 0 1 1 26.5-26.5 26.53 26.53 0 0 1 -26.5 26.5zm0-50a23.5 23.5 0 1 0 23.5 23.5 23.527 23.527 0 0 0 -23.5-23.5z"/><path d="m26.5 45a18.5 18.5 0 1 1 18.5-18.5 18.521 18.521 0 0 1 -18.5 18.5zm0-34a15.5 15.5 0 1 0 15.5 15.5 15.517 15.517 0 0 0 -15.5-15.5z"/></g></svg>

<svg xmlns="http://www.w3.org/2000/svg" viewBox="0 0 53 53"><defs><style>.a{fill:#1a9ed4;}</style></defs><path class="a" d="M26.5,53A26.5,26.5,0,1,1,53,26.5,26.53,26.53,0,0,1,26.5,53Zm0-50A23.5,23.5,0,1,0,50,26.5,23.527,23.527,0,0,0,26.5,3Z"/><path class="a" d="M26.5,45A18.5,18.5,0,1,1,45,26.5,18.521,18.521,0,0,1,26.5,45Zm0-34A15.5,15.5,0,1,0,42,26.5,15.517,15.517,0,0,0,26.5,11Z"/></svg>
